src/topics/icons/pixelapse.svg

<svg height="256" preserveAspectRatio="xMidYMid" viewBox="0 0 256 256" width="256" xmlns="http://www.w3.org/2000/svg"><path d="m.03 0h255.97v256h-255.97z" fill="#2b87d4"/><g fill="#fff"><path d="m84 68h24v24h-24z"/><path d="m116 68h24v24h-24z"/><path d="m84 132h24v24h-24z"/><path d="m84 164h24v24h-24z"/><path d="m116 132h24v24h-24z"/><path d="m148 100h24v24h-24z"/></g></svg>

<?xml version="1.0" encoding="UTF-8" standalone="no"?>
<svg width="256px" height="256px" viewBox="0 0 256 256" version="1.1" xmlns="http://www.w3.org/2000/svg" xmlns:xlink="http://www.w3.org/1999/xlink" preserveAspectRatio="xMidYMid">
	<g>
		<path d="M0.03,0 L256,0 L256,256 L0.03,256 L0.03,0 Z" fill="#2B87D4"></path>
		<path d="M84,68 L108,68 L108,92 L84,92 L84,68 Z" fill="#FFFFFF"></path>
		<path d="M116,68 L140,68 L140,92 L116,92 L116,68 Z" fill="#FFFFFF"></path>
		<path d="M84,132 L108,132 L108,156 L84,156 L84,132 Z" fill="#FFFFFF"></path>
		<path d="M84,164 L108,164 L108,188 L84,188 L84,164 Z" fill="#FFFFFF"></path>
		<path d="M116,132 L140,132 L140,156 L116,156 L116,132 Z" fill="#FFFFFF"></path>
		<path d="M148,100 L172,100 L172,124 L148,124 L148,100 Z" fill="#FFFFFF"></path>
	</g>
</svg>
